X: 204
T:Morecambe Bay
% Nottingham Music Database
Y:AAB
S:Pat Shuldam-Shaw, via EF
M:6/8
K:D
P:A
|:A|"D"D2D "A7"EDE|"D"F2F "G"GFG|"D"A2d dcd|"Em"edB "A7"AFE|
"D"D2D "A7"EDE|"D"F2F "G"GAB|"A7"ABc "Bm"def|"A7"gec "D"d2:|
P:B
|f/2g/2|"D"a2a def|"C"g2g =cde|"D"f2d "G"g2f|"Em"edB "A7"Afg|"D"a2a def|
"C"g2g =cde|"Bm"f2d "Em"g2f|"A7"ecA "D"d2f/2g/2|"F#m"a2a "Bm"def|\
"Em"g2g "Am"=cde|"D"f2d "G"g2f|
"E7"edB "A7"AFE|"Bm"D2D "A7"EDE|"D"F2F "G"GAB|"F#m"ABc "Bm"def|"A7"gec "D"d2||


